public/avatar/hat/212.svg

<svg xmlns:xlink="http://www.w3.org/1999/xlink" height="92.9" width="100.7" xmlns="http://www.w3.org/2000/svg"><use height="28.5" transform="translate(22.15 41.2)" width="34.35" xlink:href="#a"/><defs><g id="a" fill-rule="evenodd"><path d="M12.25 2.95q1.55 2.5 2.15 6.9.7 5.05-1.15 6.9Q9.7 6 3.25 6.6.9 8-.15 8-1.2 8-1.2 7.7q-.05-.6-.6-1-1.95-1.4-4.35-.95-2.15.4-3.4 1.65-1.75 1.6-5.25 6.55-.3-1.05-.2-3.75.2-2.65 2.9-5.9Q-9.7 1.5-7-.05q4.75-2.6 8.65-2.1 8.1 1 10.6 5.1" transform="translate(16.5 8.55)"/><path d="M17.4-8.2q2.15.4-6.4 17.05L9.1 8.8 5.25.95l5.4-4.7Q16.3-8.4 17.4-8.2" transform="translate(16.5 8.55)"/><path d="m7.75.1 9.5-7.8q.85 0-5.65 13.5L7.75.1" fill="#fff9f5" transform="translate(16.5 8.55)"/><path d="m10.5 2.7 6.4-8.75L12.25 4.6l-1.6.1-.15-2" fill="#d1b8a7" transform="translate(16.5 8.55)"/><path d="M-16.1-8.55q.75-.3 5.5 3.3l4.55 3.7-1.5 10.35-3.2-2Q-18-7.7-16.1-8.55" transform="translate(16.5 8.55)"/><path d="M-13.15-.95Q-16.2-7.7-15.7-7.7L-6.2.1l-3.85 5.7-3.1-6.75" fill="#fff9f5" transform="translate(16.5 8.55)"/><path d="m-7.1 2.6-6.75-8.65L-5.6.6l-1.15 2h-.35" fill="#d1b8a7" transform="translate(16.5 8.55)"/><path d="M9.2-4.75 9.3.7q2.35-1.65 4.9-1.2 0 .95-1.05 2.35-1.2 1.55-1.4 2.3 4.65.25 4.75 1.3.1.75-2.2 2.2 2.55.45 1.45 1.9-1.05 1.4-3 1.65l-11.5-13q.05-1.5 1.3-4.5Q3.6-4.8 4-1.5q.6-.85 2.25-1.9 1.8-1.15 2.95-1.35" transform="translate(16.5 8.55)"/><path d="m14.15 13.1.1-3.15q2.75 1.45 3.2 2.45-.7-.1-3.3.7v.25q1.5.7.05 3.3l-.2-.45.15-2.85-.45-.15.45-.1" transform="translate(16.5 8.55)"/><path d="m1.65 5.8 6-3.35q6.95 6.45 7.2 10.85.1 2.35-1.15 1.95-.95-.3-2.4-1.9L9.2 11q-.1.9.35 3.6.4 2.35 0 3.65.1-1.6-1.55-3.75-1.6-2.1-1.65-3.45 0 2.9-.7 4.55-1.2 2.65-1.3 3.8-2.25-2.65-2.5-4.75L.8 16.95l-2.2 3q-.95-3.35-.1-7.55.85-4.45 3.15-6.6" transform="translate(16.5 8.55)"/><path d="m1.45 8.2.1 2-.8 1.8-.95 1.65q-.2-1.4.15-3 .5-1.9 1.5-2.45" fill="#5e534b" transform="translate(16.5 8.55)"/><path d="m-5.25 3.95 6 2.25q-3.05 1.35-5.6 5.4-2.3 3.75-2.75 7.35-1.15-2-1.15-3.15v-5.15l-3.7 6.25q-1.3-5.7-.05-7.9.8-1.45 3.3-2.9l3.95-2.15" transform="translate(16.5 8.55)"/><path d="m-8.35 8.8.5-.6.7-.7q.25.3.25 2.45 0 .9-.55 1.7l-1 1.45q.2-2.95.1-4.3" fill="#73655b" transform="translate(16.5 8.55)"/><path d="M-8.15 9.55q0-1.95.5-2.75.7-1.2 1.65-2.05.05 1.4-.7 2.9L-8 10.3l-.15-.75" fill="#9c897c" transform="translate(16.5 8.55)"/><path d="M-.4-6.25q-.2.85.65 3.9v3.3L-7.6.6q1-3.8 1.05-5.75l1.6 1.45q.95 1.25.9 2.3.15-1.25 1.5-2.6L-.4-6.25" transform="translate(16.5 8.55)"/><path d="M-5.1 3.85Q-6 6.1-8.7 7.3q-3.6 1.6-4.7 1.45-1.3-2.95-1.15-4.45l1.8.15.05-4.15q2.65.75 3.25 1.15-.1-2 .7-3.05Q-3.7.5-5.1 3.85" transform="translate(16.5 8.55)"/><path d="m-10.65 4.35 1.05 1.6q0 1.6-.4 2.4-1.2 2.2-1.9 2.4l.35-3.55q.25-1.5.9-2.85m.15.1q-.15-1.75.95-1.65.55.05.55 1.9l-1.5-.25" fill="#73655b" transform="translate(16.5 8.55)"/><path d="m-10.25 3.6.65.6q.5 2 .35 2.25-.65 1-2.1 1-.2-1.6 1.1-3.85M1.8 10.95q-.3.9-1.3 1.05-1 .15-.85-1.05.25-1.4.85-1.55.55-.05 1 .45.45.55.35 1.05l-.05.05M-5.5 8.2h1.15q-.5 1.9-2 1.6.15-.9.85-1.6" fill="#9c897c" transform="translate(16.5 8.55)"/><path d="M-4.75 4.55Q-5.9 4.4-5.9 2.3-6 .55-4.5 1.5-2 3.15-5 5.7l-.4-1.1.65-.05" fill="#73655b" transform="translate(16.5 8.55)"/><path d="m-4.75 2.35.9.25q.55 1 .45 1.2-1 .95-1.1.65l-.25-2.1M1.4 5.2q.55-.55.35-1.5l1.85.15q-.15.8-1.2 1.75l-1-.4" fill="#9c897c" transform="translate(16.5 8.55)"/><path d="m-12.25 4.1.2-2.7q1.5-.15 1.15 2.15-.15.8-.85 1.05l-.5-.5" fill="#73655b" transform="translate(16.5 8.55)"/><path d="M.95 3.5h.75q.7.6.4 1.55-.3.95-1.35.75 0-2.05.2-2.3m-4.5-5L-3-2.55l1.05-.75q.05.65-.3 1.4-.4.85-.95.75l-.35-.35m-2.3.6.15-.1q-.3.4-.85.55-.6.15-.65-.45 0-1.35 1.3-1.85.1.6.05 1.85m-1.9 4.15Q-8.7 2.8-8.55.2q.45.15 1.1 1.1.2.35.2 2.15l-.5-.2" fill="#5e534b" transform="translate(16.5 8.55)"/><path d="M-10.5 4.25V5.7l-.1 1.2q-.2.6-.9.4-.1-.6.5-1.7l.5-1.35m2.25 6.05h-.35q-.05-.85.6-1.6 1-.85 1-1.25.05.75-.4 1.6l-.85 1.25m3.15-7.95.85.25q.2 1.1-.85 1.2V2.35m5.35 7.8.5-.65q0 2.05-1 1.85-.1-.85.5-1.2" fill="#f2eae3" transform="translate(16.5 8.55)"/><path d="m12.1 1.2-.45 1.35-.5 1.15v1.05L9.2 5.1l2.9-3.9m2.05 4h.7q.85.55-.5 1.5l-1.9 1.1 1.7-2.6m-1.9 4.25.9-.15q.9.4.9 2.5 0 1.95-.6 2.75.1-1.55-.15-2.3-1.15-1.7-1.05-2.8" fill="#9c897c" transform="translate(16.5 8.55)"/><path d="m-13.6 5.2.35.6q.25.3.15.8-.5.1-.5-1.4" fill="#73655b" transform="translate(16.5 8.55)"/><path d="M2.95 11.9q-.45-1.15-.05-2.25.45-1.3 1.3-.65.6.45.4 1.55-.15 1.05-.75 1.5-.65.5-.9-.15m4.25-.25q-.2.25-1-2.2l.6.2.3.5q.5.9.1 1.5" fill="#5e534b" transform="translate(16.5 8.55)"/><path d="M.9 4.3q-.1-.6.4-1.4l.65-1.3q.55 1.65-.45 3.25L.9 4.3" fill="#9c897c" transform="translate(16.5 8.55)"/></g></defs></svg>

<?xml version="1.0" encoding="UTF-8" standalone="no"?>
<svg xmlns:xlink="http://www.w3.org/1999/xlink" height="92.9px" width="100.7px" xmlns="http://www.w3.org/2000/svg">
  <g transform="matrix(1.0, 0.0, 0.0, 1.0, 38.65, 49.75)">
    <use height="28.5" transform="matrix(1.0, 0.0, 0.0, 1.0, -16.5, -8.55)" width="34.35" xlink:href="#shape0"/>
  </g>
  <defs>
    <g id="shape0" transform="matrix(1.0, 0.0, 0.0, 1.0, 16.5, 8.55)">
      <path d="M12.25 2.95 Q13.8 5.45 14.4 9.85 15.1 14.9 13.25 16.75 9.7 6.0 3.25 6.6 0.9 8.0 -0.15 8.0 -1.2 8.0 -1.2 7.7 -1.25 7.1 -1.8 6.7 -3.75 5.3 -6.15 5.75 -8.3 6.15 -9.55 7.4 -11.3 9.0 -14.8 13.95 -15.1 12.9 -15.0 10.2 -14.8 7.55 -12.1 4.3 -9.7 1.5 -7.0 -0.05 -2.25 -2.65 1.65 -2.15 9.75 -1.15 12.25 2.95" fill="#000000" fill-rule="evenodd" stroke="none"/>
      <path d="M17.4 -8.2 Q19.55 -7.8 11.0 8.85 L9.1 8.8 5.25 0.95 10.65 -3.75 Q16.3 -8.4 17.4 -8.2" fill="#000000" fill-rule="evenodd" stroke="none"/>
      <path d="M7.75 0.1 L17.25 -7.7 Q18.1 -7.7 11.6 5.8 L7.75 0.1" fill="#fff9f5" fill-rule="evenodd" stroke="none"/>
      <path d="M10.5 2.7 L16.9 -6.05 12.25 4.6 10.65 4.7 10.5 2.7" fill="#d1b8a7" fill-rule="evenodd" stroke="none"/>
      <path d="M-16.1 -8.55 Q-15.35 -8.85 -10.6 -5.25 L-6.05 -1.55 -7.55 8.8 -10.75 6.8 Q-18.0 -7.7 -16.1 -8.55" fill="#000000" fill-rule="evenodd" stroke="none"/>
      <path d="M-13.15 -0.95 Q-16.2 -7.7 -15.7 -7.7 L-6.2 0.1 -10.05 5.8 -13.15 -0.95" fill="#fff9f5" fill-rule="evenodd" stroke="none"/>
      <path d="M-7.1 2.6 L-13.85 -6.05 -5.6 0.6 -6.75 2.6 -7.1 2.6" fill="#d1b8a7" fill-rule="evenodd" stroke="none"/>
      <path d="M9.2 -4.75 L9.3 0.7 Q11.65 -0.95 14.2 -0.5 14.2 0.45 13.15 1.85 11.95 3.4 11.75 4.15 16.4 4.4 16.5 5.45 16.6 6.2 14.3 7.65 16.85 8.1 15.75 9.55 14.7 10.95 12.75 11.2 L1.25 -1.8 Q1.3 -3.3 2.55 -6.3 3.6 -4.8 4.0 -1.5 4.6 -2.35 6.25 -3.4 8.05 -4.55 9.2 -4.75" fill="#000000" fill-rule="evenodd" stroke="none"/>
      <path d="M14.15 13.1 L14.25 9.95 Q17.0 11.4 17.45 12.4 16.75 12.3 14.15 13.1 L14.15 13.35 Q15.65 14.05 14.2 16.65 L14.0 16.2 14.15 13.35 13.7 13.2 14.15 13.1" fill="#000000" fill-rule="evenodd" stroke="none"/>
      <path d="M1.65 5.8 L7.65 2.45 Q14.6 8.9 14.85 13.3 14.95 15.65 13.7 15.25 12.75 14.95 11.3 13.35 L9.2 11.0 Q9.1 11.9 9.55 14.6 9.95 16.95 9.55 18.25 9.65 16.65 8.0 14.5 6.4 12.4 6.35 11.05 6.35 13.95 5.65 15.6 4.45 18.25 4.35 19.4 2.1 16.75 1.85 14.65 L0.8 16.95 -1.4 19.95 Q-2.35 16.6 -1.5 12.4 -0.65 7.95 1.65 5.8" fill="#000000" fill-rule="evenodd" stroke="none"/>
      <path d="M1.45 8.2 L1.55 10.2 0.75 12.0 -0.2 13.65 Q-0.4 12.25 -0.05 10.65 0.45 8.75 1.45 8.2" fill="#5e534b" fill-rule="evenodd" stroke="none"/>
      <path d="M-5.25 3.95 L0.75 6.2 Q-2.3 7.55 -4.85 11.6 -7.15 15.35 -7.6 18.95 -8.75 16.95 -8.75 15.8 L-8.75 10.65 -12.45 16.9 Q-13.75 11.2 -12.5 9.0 -11.7 7.55 -9.2 6.1 L-5.25 3.95" fill="#000000" fill-rule="evenodd" stroke="none"/>
      <path d="M-8.35 8.8 L-7.85 8.2 -7.15 7.5 Q-6.9 7.8 -6.9 9.95 -6.9 10.85 -7.45 11.65 L-8.45 13.1 Q-8.25 10.15 -8.35 8.8" fill="#73655b" fill-rule="evenodd" stroke="none"/>
      <path d="M-8.15 9.55 Q-8.15 7.6 -7.65 6.8 -6.95 5.6 -6.0 4.75 -5.95 6.15 -6.7 7.65 L-8.0 10.3 -8.15 9.55" fill="#9c897c" fill-rule="evenodd" stroke="none"/>
      <path d="M-0.4 -6.25 Q-0.6 -5.4 0.25 -2.35 L0.25 0.95 -7.6 0.6 Q-6.6 -3.2 -6.55 -5.15 L-4.95 -3.7 Q-4.0 -2.45 -4.05 -1.4 -3.9 -2.65 -2.55 -4.0 L-0.4 -6.25" fill="#000000" fill-rule="evenodd" stroke="none"/>
      <path d="M-5.1 3.85 Q-6.0 6.1 -8.7 7.3 -12.3 8.9 -13.4 8.75 -14.7 5.8 -14.55 4.3 L-12.75 4.45 -12.7 0.3 Q-10.05 1.05 -9.45 1.45 -9.55 -0.55 -8.75 -1.6 -3.7 0.5 -5.1 3.85" fill="#000000" fill-rule="evenodd" stroke="none"/>
      <path d="M-10.65 4.35 L-9.6 5.95 Q-9.6 7.55 -10.0 8.35 -11.2 10.55 -11.9 10.75 L-11.55 7.2 Q-11.3 5.7 -10.65 4.35" fill="#73655b" fill-rule="evenodd" stroke="none"/>
      <path d="M-10.5 4.45 Q-10.65 2.7 -9.55 2.8 -9.0 2.85 -9.0 4.7 L-10.5 4.45" fill="#73655b" fill-rule="evenodd" stroke="none"/>
      <path d="M-10.25 3.6 L-9.6 4.2 Q-9.1 6.2 -9.25 6.45 -9.9 7.45 -11.35 7.45 -11.55 5.85 -10.25 3.6" fill="#9c897c" fill-rule="evenodd" stroke="none"/>
      <path d="M1.8 10.95 Q1.5 11.85 0.5 12.0 -0.5 12.15 -0.35 10.95 -0.1 9.55 0.5 9.4 1.05 9.35 1.5 9.85 1.95 10.4 1.85 10.9 L1.8 10.95" fill="#9c897c" fill-rule="evenodd" stroke="none"/>
      <path d="M-5.5 8.2 L-4.35 8.2 Q-4.85 10.1 -6.35 9.8 -6.2 8.9 -5.5 8.2" fill="#9c897c" fill-rule="evenodd" stroke="none"/>
      <path d="M-4.75 4.55 Q-5.9 4.4 -5.9 2.3 -6.0 0.55 -4.5 1.5 -2.0 3.15 -5.0 5.7 L-5.4 4.6 -4.75 4.55" fill="#73655b" fill-rule="evenodd" stroke="none"/>
      <path d="M-4.75 2.35 L-3.85 2.6 Q-3.3 3.6 -3.4 3.8 -4.4 4.75 -4.5 4.45 L-4.75 2.35" fill="#9c897c" fill-rule="evenodd" stroke="none"/>
      <path d="M1.4 5.2 Q1.95 4.65 1.75 3.7 L3.6 3.85 Q3.45 4.65 2.4 5.6 L1.4 5.2" fill="#9c897c" fill-rule="evenodd" stroke="none"/>
      <path d="M-12.25 4.1 L-12.05 1.4 Q-10.55 1.25 -10.9 3.55 -11.05 4.35 -11.75 4.6 L-12.25 4.1" fill="#73655b" fill-rule="evenodd" stroke="none"/>
      <path d="M0.95 3.5 L1.7 3.5 Q2.4 4.1 2.1 5.05 1.8 6.0 0.75 5.8 0.75 3.75 0.95 3.5" fill="#5e534b" fill-rule="evenodd" stroke="none"/>
      <path d="M-3.55 -1.5 L-3.0 -2.55 -1.95 -3.3 Q-1.9 -2.65 -2.25 -1.9 -2.65 -1.05 -3.2 -1.15 L-3.55 -1.5" fill="#5e534b" fill-rule="evenodd" stroke="none"/>
      <path d="M-5.85 -0.9 L-5.7 -1.0 Q-6.0 -0.6 -6.55 -0.45 -7.15 -0.3 -7.2 -0.9 -7.2 -2.25 -5.9 -2.75 -5.8 -2.15 -5.85 -0.9" fill="#5e534b" fill-rule="evenodd" stroke="none"/>
      <path d="M-7.75 3.25 Q-8.7 2.8 -8.55 0.2 -8.1 0.35 -7.45 1.3 -7.25 1.65 -7.25 3.45 L-7.75 3.25" fill="#5e534b" fill-rule="evenodd" stroke="none"/>
      <path d="M-10.5 4.25 L-10.5 5.7 -10.6 6.9 Q-10.8 7.5 -11.5 7.3 -11.6 6.7 -11.0 5.6 L-10.5 4.25" fill="#f2eae3" fill-rule="evenodd" stroke="none"/>
      <path d="M-8.25 10.3 L-8.6 10.3 Q-8.65 9.45 -8.0 8.7 -7.0 7.85 -7.0 7.45 -6.95 8.2 -7.4 9.05 L-8.25 10.3" fill="#f2eae3" fill-rule="evenodd" stroke="none"/>
      <path d="M-5.1 2.35 L-4.25 2.6 Q-4.05 3.7 -5.1 3.8 L-5.1 2.35" fill="#f2eae3" fill-rule="evenodd" stroke="none"/>
      <path d="M0.25 10.15 L0.75 9.5 Q0.75 11.55 -0.25 11.35 -0.35 10.5 0.25 10.15" fill="#f2eae3" fill-rule="evenodd" stroke="none"/>
      <path d="M12.1 1.2 L11.65 2.55 11.15 3.7 11.15 4.75 9.2 5.1 12.1 1.2" fill="#9c897c" fill-rule="evenodd" stroke="none"/>
      <path d="M14.15 5.2 L14.85 5.2 Q15.7 5.75 14.35 6.7 L12.45 7.8 14.15 5.2" fill="#9c897c" fill-rule="evenodd" stroke="none"/>
      <path d="M12.25 9.45 L13.15 9.3 Q14.05 9.7 14.05 11.8 14.05 13.75 13.45 14.55 13.55 13.0 13.3 12.25 12.15 10.55 12.25 9.45" fill="#9c897c" fill-rule="evenodd" stroke="none"/>
      <path d="M-13.6 5.2 L-13.25 5.8 Q-13.0 6.1 -13.1 6.6 -13.6 6.7 -13.6 5.2" fill="#73655b" fill-rule="evenodd" stroke="none"/>
      <path d="M2.95 11.9 Q2.5 10.75 2.9 9.65 3.35 8.35 4.2 9.0 4.8 9.45 4.6 10.55 4.45 11.6 3.85 12.05 3.2 12.55 2.95 11.9" fill="#5e534b" fill-rule="evenodd" stroke="none"/>
      <path d="M7.2 11.65 Q7.0 11.9 6.2 9.45 L6.8 9.65 7.1 10.15 Q7.6 11.05 7.2 11.65" fill="#5e534b" fill-rule="evenodd" stroke="none"/>
      <path d="M0.9 4.3 Q0.8 3.7 1.3 2.9 L1.95 1.6 Q2.5 3.25 1.5 4.85 L0.9 4.3" fill="#9c897c" fill-rule="evenodd" stroke="none"/>
    </g>
  </defs>
</svg>
